X: 191654
T: Ship Doctor
T: Docht\'uir Loinge
S: B.Breathnach:"Ceol Rince na hEireann" IV/40 
Z: B.Black
L: 1/8
M: 9/8
R: slipjig
K: Em
GEE E2e BGE|BGE E2d AFD|GFE E2F GAB|cBA G2A BGE :|
gfg e2d efe|gfg A2B cBA|BGE E2F GAB|cBA G2A BGE :|
